X: 10301
Q: "Allegro"
M: 3/4
L: 1/8
K: C
c4 (e>c) | d2 d2 (e>c) | d2 G2 (e>c) (d>e) (f>d) (e>c) |
d4 d2 | d2 (B>d) (c>B) | c2 (A>c) (B>A) | (BA) (GA) (Bc) |
d4 e2 | d2 (cB) (cd) | (e^f) g2 f2 | g6 | e6 |
d2 (cB) (AG) | (Bc) d2 D2 | G2 z2 G2 | (Bc) d2 (cB) |
(cd) e2 (dc) | (de) =f2 (ed) | e4 e> d | c2 A2 e> d |
c2 A2 e2 | (fe) (dc) (BA) | (^GF) E2 e2 | (fd) (cB) (A^G) |
{c2}B4 g2 | g4 e> c | d2 G2 B2 | c2 z2 G2 |
c2 (GF) (ED) | C4 (c>d) | e2 c2 G2 | {F2}E4 e> f |
g>agfeg | f>gfedf | egfedc | BdcBAG |
c>Bcedf | e>degfa | g2 fedc | G4 G2 |
c2 c2 _B2 | A2 f2 A2 | d2 d2 c2 | B2 z2 g2 | g4 e c |
d2 G2 B2 | c2 zgag | fedcBA | GABcde | f2 d2 g2 | c2 z2 |]




